X:1
T:Malone, 88.68.86
T:Malone, 88.68.86
T:Luther Orlando Emerson, 1869
T:Public Domain Courtesy of the Cyber Hymnal™
C:Luther Orlando Emerson, 1869
Z:Public Domain
Z:Courtesy of the Cyber Hymnal™
%%score ( 1 2 ) ( 3 4 )
L:1/8
Q:1/4=140
M:3/2
K:Bb
V:1 treble 
V:2 treble 
V:3 bass 
V:4 bass 
V:1
 [DF]4 | [DB]3 [DB] [DB]2 [B,D]2 [CE]2 [DF]2 | [EG]8 [EG]4 | [EG]3 [EG] [EG]2 [EG]2 [FA]2 [EA]2 | %4
 [DB]8 [Fd]4 | [Fd]2 [Gc]2 [GB]4 [^FA]4 | G8 [DF]4 | [Fd]3 [Fd] [Fd]2 [Ec]2 [DB]2 [EG]2 | %8
 [DF]8 [DF]4 | [FB]3 [FB] [Fc]2 [Fc]2 [Fd]2 [FB]2 | [Fc]8 [Ff]4 | [Fd]2 [FB]2 [EG]4 [EA]4 | %12
 [DB]8 |] %13
V:2
 x4 | x12 | x12 | x12 | x12 | x12 | G8 x4 | x12 | x12 | x12 | x12 | x12 | x8 |] %13
V:3
 [B,,B,]4 | [B,,F,]3 [B,,F,] [B,,F,]2 [B,,F,]2 [B,,B,]2 [B,,B,]2 | [E,B,]8 [E,B,]4 | %3
 [E,B,]3 [E,B,] [C,C]2 [C,C]2 [F,C]2 [F,C]2 | [B,,B,]8 [B,,B,]4 | [B,,D]2 [C,E]2 [D,D]4 [D,C]4 | %6
 [G,,B,]8 [B,,B,]4 | [B,,B,]3 [B,,B,] [B,,B,]2 [B,,B,]2 [B,,B,]2 [B,,B,]2 | [B,,B,]8 [B,,B,]4 | %9
 [D,B,]3 [D,B,] [F,A,]2 [F,A,]2 B,2 [D,B,]2 | [F,A,]8 [F,A,]4 | B,2 [D,B,]2 [E,B,]4 F,4 | %12
 [B,,F,]8 |] %13
V:4
 x4 | x12 | x12 | x12 | x12 | x12 | x12 | x12 | x12 | x8 B,2 x2 | x12 | B,2 x4 F,4 x2 | x8 |] %13

